Obsidian-SemiLight/actions/24s/insert-table.svg

<svg viewBox="0 0 24 24" xmlns="http://www.w3.org/2000/svg"><path d="m4 4v16h9v-1h-2v-2h2v-1h-2v-2h2v-1h-2v-2h2v2h1v-2h2v2h1v-2h2v2h1v-9zm1 1h2 1 2v5h-5v-2-1zm6 0h2v2h-2zm3 0h2v2h-2zm3 0h2v2h-2zm-6 3h2v2h-2zm3 0h2v2h-2zm3 0h2v2h-2zm-12 3h2v2h-2zm3 0h2v2h-2zm-3 3h2v2h-2zm3 0h2v2h-2zm9 1v2h-2v1h2v2h1v-2h2v-1h-2v-2zm-12 2h2v2h-2zm3 0h2v2h-2z" fill="#4d4d4d"/><path d="m5 5v3 2h5v-2-3h-2z" fill="#3daee9"/></svg>

<svg xmlns="http://www.w3.org/2000/svg" viewBox="0 0 24 24">
  <defs id="defs3051">
    <style type="text/css" id="current-color-scheme">
      .ColorScheme-Text {
        color:#4d4d4d;
      }
      .ColorScheme-Highlight {
        color:#3daee9;
      }
      </style>
  </defs>
 <path 
     style="fill:currentColor;fill-opacity:1;stroke:none" 
     d="M 4 4 L 4 20 L 13 20 L 13 19 L 11 19 L 11 17 L 13 17 L 13 16 L 11 16 L 11 14 L 13 14 L 13 13 L 11 13 L 11 11 L 13 11 L 13 13 L 14 13 L 14 11 L 16 11 L 16 13 L 17 13 L 17 11 L 19 11 L 19 13 L 20 13 L 20 4 L 4 4 z M 5 5 L 7 5 L 8 5 L 10 5 L 10 10 L 5 10 L 5 8 L 5 7 L 5 5 z M 11 5 L 13 5 L 13 7 L 11 7 L 11 5 z M 14 5 L 16 5 L 16 7 L 14 7 L 14 5 z M 17 5 L 19 5 L 19 7 L 17 7 L 17 5 z M 11 8 L 13 8 L 13 10 L 11 10 L 11 8 z M 14 8 L 16 8 L 16 10 L 14 10 L 14 8 z M 17 8 L 19 8 L 19 10 L 17 10 L 17 8 z M 5 11 L 7 11 L 7 13 L 5 13 L 5 11 z M 8 11 L 10 11 L 10 13 L 8 13 L 8 11 z M 5 14 L 7 14 L 7 16 L 5 16 L 5 14 z M 8 14 L 10 14 L 10 16 L 8 16 L 8 14 z M 17 15 L 17 17 L 15 17 L 15 18 L 17 18 L 17 20 L 18 20 L 18 18 L 20 18 L 20 17 L 18 17 L 18 15 L 17 15 z M 5 17 L 7 17 L 7 19 L 5 19 L 5 17 z M 8 17 L 10 17 L 10 19 L 8 19 L 8 17 z "
     class="ColorScheme-Text"
     />
 <path 
     style="fill:currentColor;fill-opacity:1;stroke:none" 
     d="M 5 5 L 5 8 L 5 10 L 10 10 L 10 8 L 10 5 L 8 5 L 5 5 z "
     class="ColorScheme-Highlight"
     />
</svg>
